public/assets/kyve.svg

<svg width="20" height="20" viewBox="0 0 20 20" fill="none" xmlns="http://www.w3.org/2000/svg">
<g clip-path="url(#clip0_1:757)">
<path d="M9.85064 19.3102C15.0407 19.3102 19.2482 15.1028 19.2482 9.91265C19.2482 4.72255 15.0407 0.515137 9.85064 0.515137C4.66054 0.515137 0.453125 4.72255 0.453125 9.91265C0.453125 15.1028 4.66054 19.3102 9.85064 19.3102Z" fill="#5A5A5A" fill-opacity="0.48"/>
<path d="M9.8507 18.7229C14.7164 18.7229 18.6609 14.7784 18.6609 9.91271C18.6609 5.04699 14.7164 1.10254 9.8507 1.10254C4.98498 1.10254 1.04053 5.04699 1.04053 9.91271C1.04053 14.7784 4.98498 18.7229 9.8507 18.7229Z" fill="#5A5A5A" fill-opacity="0.48"/>
<path d="M7.7459 14.353H6.19531L7.9456 6.13013H9.49619L8.77963 9.50149H9.06155L11.7164 6.13013H13.5254V6.27109L10.4007 10.1711V10.3825L12.3742 14.2825V14.353H10.6591L8.94409 10.9816H8.45072L7.7459 14.353Z" fill="#F5F5F5"/>
</g>
<defs>
<clipPath id="clip0_1:757">
<rect width="18.795" height="18.795" fill="white" transform="translate(0.453125 0.515137)"/>
</clipPath>
</defs>
</svg>

<svg width="20" height="20" fill="none" xmlns="http://www.w3.org/2000/svg"><g clip-path="url(#a)"><path d="M9.85 19.31a9.398 9.398 0 1 0 0-18.795 9.398 9.398 0 0 0 0 18.795Z" fill="#5A5A5A" fill-opacity=".48"/><path d="M9.85 18.723a8.81 8.81 0 1 0 0-17.62 8.81 8.81 0 0 0 0 17.62Z" fill="#5A5A5A" fill-opacity=".48"/><path d="M7.746 14.353h-1.55l1.75-8.223h1.55L8.78 9.501h.282l2.654-3.37h1.81v.14l-3.125 3.9v.212l1.973 3.9v.07H10.66l-1.715-3.371h-.493l-.705 3.371Z" fill="#F5F5F5"/></g><defs><clipPath id="a"><path fill="#fff" transform="translate(.453 .515)" d="M0 0h18.795v18.795H0z"/></clipPath></defs></svg>
